src/assets/img/icons/solid/secure.svg

<svg xmlns="http://www.w3.org/2000/svg" viewBox="0 0 256 256"><path class="fill-secondary" d="M186.58 126.14l-56-19a8 8 0 00-5.16 0l-56 19a8 8 0 00-5.42 7.57v42.87c0 52.32 58.38 77.72 60.88 78.8a8.19 8.19 0 003.12.62 7.85 7.85 0 003.12-.64c2.5-1.06 60.88-26.48 60.88-78.78v-42.87a8 8 0 00-5.42-7.57zm-23.52 40.45l-29.33 37.33a10.67 10.67 0 01-7.35 4c-.35 0-.7.05-1 .05a10.71 10.71 0 01-7-2.56l-18.67-16a10.66 10.66 0 0113.87-16.19l10.23 8.78 22.46-28.58a10.67 10.67 0 0116.79 13.17z"/><path class="fill-primary" d="M224 0H32A32.09 32.09 0 000 32v170.67a32.09 32.09 0 0032 32h31.79a103.44 103.44 0 01-13.12-21.33H32a10.7 10.7 0 01-10.67-10.67V53.34h213.34v149.33A10.7 10.7 0 01224 213.34h-18.67a106.83 106.83 0 01-13 21.33H224a32.09 32.09 0 0032-32V32a32.09 32.09 0 00-32-32z"/></svg>

<svg xmlns="http://www.w3.org/2000/svg" viewBox="0 0 256 256"><g><g><path class="fill-secondary" d="M186.58,126.14l-56-19a8,8,0,0,0-5.16,0l-56,19A8,8,0,0,0,64,133.71v42.87c0,52.32,58.38,77.72,60.88,78.8A8.19,8.19,0,0,0,128,256a7.85,7.85,0,0,0,3.12-.64c2.5-1.06,60.88-26.48,60.88-78.78V133.71a8,8,0,0,0-5.42-7.57Zm-23.52,40.45-29.33,37.33a10.67,10.67,0,0,1-7.35,4c-.35,0-.7.05-1,.05a10.71,10.71,0,0,1-7-2.56l-18.67-16a10.66,10.66,0,0,1,13.87-16.19L123.81,182l22.46-28.58a10.67,10.67,0,0,1,16.79,13.17Z"/><path class="fill-primary" d="M224,0H32A32.09,32.09,0,0,0,0,32V202.67a32.09,32.09,0,0,0,32,32H63.79a103.44,103.44,0,0,1-13.12-21.33H32a10.7,10.7,0,0,1-10.67-10.67V53.34H234.67V202.67A10.7,10.7,0,0,1,224,213.34H205.33a106.83,106.83,0,0,1-13,21.33H224a32.09,32.09,0,0,0,32-32V32A32.09,32.09,0,0,0,224,0Z"/></g></g></svg>
